X:1
T:9.  Ehre sei Gott in der Höhe
T:Hugo Distler
T:Luke 2:14
T:9.  Glory to God in the Highest Ehre sei Gott in der Höhe Christmas
C:Hugo Distler
Z:Luke 2:14
%%score [ 1 2 3 ]
L:1/8
Q:1/4=100
M:6/4
K:C
V:1 treble nm="Sop. 1"
V:2 treble nm="Sop. 2"
V:3 treble nm="Alto"
V:1
 z2"^Free psalmody (Frei psalmodierend)"!f! (G4 A2 c2 d2) | d2 d2 d4 e2 c2 |[M:4/4]"^Flowing" d8 | %3
w: Glo- * * *|ry to God in the|high-|
 d6 z2 | z2 (c4 d2 | f3 e) d2 c2 | !breath!d2 (B4 ^c2 | e3 ^d) ^c2 B2 | ^c4 c2 c2 | %9
w: est.|Glo- *|* * ry to|God, glo- *|* * ry to|God in the|
[M:6/4] d4 [^ce]4!p!"^More quietly (Ruhiger)" E2 E2 |[M:8/4] (=F4 !breath!E6 E2 F2 G2 | %11
w: high- est and on|earth _ _ _ _|
 A4 !breath!F2 G3 F E2 F2 D2) |[M:4/4] !breath!E8[Q:1/4=120]"^Fast" |!mf! B2 G2 (d2 B2- | %14
w: _ _ _ _ _ _ _|peace|a- mong men _|
 BcdB e2) dd | c4 B4 | A4 z4 | B2 G2 (d2 B2- | BcdB e2) dd | c2 B2 !breath!A4 | B2 G2 (BcdB | %21
w: _ _ _ _ _ with whom|He is|pleased,|a- mong men _|_ _ _ _ _ with whom|He is pleased,|a- mong men _ _ _|
[M:6/4] e2) dc dd d4 d2 |] %22
w: _ with whom He is well pleased!|
V:2
 z12 | z12 |[M:4/4] z2!f! (G4 A2 | c3 B) A2 G2 | !breath!A6 (A2- | A2 Bc d3 c) | %6
w: ||Glo- *|* * ry to|God, glo-||
 !breath!B2 (e3 ^d) ^c2- | c2 B2 ^c4- | c4 B2 A2 |[M:6/4] ^F4 A4!p! =C2 C2 | %10
w: ry, glo- * ry|_ to God|_ in the|high- est and on|
[M:8/4] (C4 !breath!B,6 E2 D2 C2 | E4 !breath!D2 E3 D C2 D4) |[M:4/4] ^C4!mf!"^Fast" ^F2 E2 | %13
w: earth _ _ _ _|_ _ _ _ _ _|peace a- mong|
 (G4 ^FGAF | B2) AA (G2 ^F2) | E4 D4 | ^F2 D2 (A2 G2- | GABG c2) BB | (A4 G4- | %19
w: men _ _ _ _|_ with whom He _|is pleased,|a- mong men _|_ _ _ _ _ with whom|He _|
 G2 ^FE) !breath!F4 | G2 G2 E2 G2- |[M:6/4] GG A2 A2 B4 B2 |] %22
w: _ _ _ is|pleased, a- mong men|_ with whom He is pleased!|
V:3
 z12 | z12 |[M:4/4] z4 z2!f! (D2- | D2 E2 F3 E) | D2 C2 E4- | !breath!E2 (D4 E2 | %6
w: ||Glo-||ry to God,|_ glo- *|
 G3 ^F) !breath!E2 (E2- | E2 ^F2 A3 ^G) | ^F2 E2 F4 |[M:6/4] D2 D2!>(! A,8 |[M:8/4] A,16- | %11
w: * * ry, glo-||ry to God|in the high-|est|
 A,16-!>)! |[M:4/4] !breath!A,8"^Fast" | z8 | z8 | z4!mf! B,2 G,2 | !breath!D4 D2 G,2 | %17
w: _||||a- mong|men, a- mong|
 D4 !breath!D2 G,2 | (D2 B,3 C DB, | E2) EE C4 | [G,D]8 |[M:6/4] [G,D]12 |] %22
w: men, a- mong|men _ _ _ _|_ with whom He|is|pleased!|

